X:1
T:Battle Hymn
T:CCDB
B:Company of Fifers and Drummers, Vol. 2/CCDB
M:6/8
L:1/8
Q:1/8=300
K:D t=8
|: A|A2 A ( A2G )|F2Ad2e|f2ff2e|d3d2c|B2BB2c|d2cd2B|
A2B A2F|A3-A2 A|A2A A2G|F2Ad2e|f2ff2e|d2zd3|e3e3|d3c3|d6-|d2zz2z|
A3-A2G|F2A d2e|( f6|d3 )-d2z|B3-B2c|d2cd2B|( A6|F3 )-F2F|
A3-A2G|F2Ad2e|( f6|d2 ) z d3|e3e3|d3c3|d6-|d2zz2 :|
